assets/img/icons/duotone-icons/Clothes/Brassiere.svg

<?xml version="1.0" encoding="UTF-8"?>
<svg width="24px" height="24px" viewBox="0 0 24 24" version="1.1" xmlns="http://www.w3.org/2000/svg" xmlns:xlink="http://www.w3.org/1999/xlink">
    <!-- Generator: Sketch 52.2 (67145) - http://www.bohemiancoding.com/sketch -->
    <title>Stockholm-icons / Clothes / Brassiere</title>
    <desc>Created with Sketch.</desc>
    <g id="Stockholm-icons-/-Clothes-/-Brassiere" stroke="none" stroke-width="1" fill="none" fill-rule="evenodd">
        <polygon id="Shape" points="0 0 24 0 24 24 0 24"></polygon>
        <path d="M12.5,14 C12.5,11.2385763 15.7385763,8 18.5,8 C21.2614237,8 23.5,9.23857625 23.5,12 C23.5,14.7614237 21.2614237,17 18.5,17 C16.6555516,17 14.5982285,16.8935626 13.4352772,16 L11.0647228,16 C9.90177152,16.8935626 7.8444484,17 6,17 C3.23857625,17 1,14.7614237 1,12 C1,9.23857625 3.23857625,8 6,8 C8.76142375,8 12,11.2385763 12,14 L12.5,14 Z" id="Combined-Shape" fill="#335EEA"></path>
    </g>
</svg>

<svg width="24" height="24" viewBox="0 0 24 24" xmlns="http://www.w3.org/2000/svg"><g fill="none" fill-rule="evenodd"><path d="M0 0h24v24H0z"/><path d="M12.5 14c0-2.761 3.239-6 6-6s5 1.239 5 4a5 5 0 01-5 5c-1.844 0-3.902-.106-5.065-1h-2.37c-1.163.894-3.22 1-5.065 1a5 5 0 01-5-5c0-2.761 2.239-4 5-4s6 3.239 6 6h.5z" fill="#335EEA"/></g></svg>
